Simply-Cyan-Circles/scalable/panel/user-invisible.svg

<svg xmlns="http://www.w3.org/2000/svg" width="24" height="24" id="svg9"><defs id="defs3"><style id="current-color-scheme"></style></defs><path d="M12 4.23A7.77 7.77 0 0 0 4.23 12a7.77 7.77 0 0 0 2.31 5.52l-4.6 2.24h9.8a7.77 7.77 0 0 0 .27 0A7.77 7.77 0 0 0 19.77 12 7.77 7.77 0 0 0 12 4.23zm-.03 1.15H12a6.67 6.67 0 0 1 6.67 6.68 6.67 6.67 0 0 1-6.67 6.69 6.67 6.67 0 0 1-4.3-1.56 6.67 6.67 0 0 1-.15-.14 6.67 6.67 0 0 1-2.24-4.98 6.67 6.67 0 0 1 6.67-6.7z" id="path849" fill="teal" stroke-width="1.24"/></svg>

<?xml version="1.0" encoding="UTF-8" standalone="no"?>
<svg
   xmlns:dc="http://purl.org/dc/elements/1.1/"
   xmlns:cc="http://creativecommons.org/ns#"
   xmlns:rdf="http://www.w3.org/1999/02/22-rdf-syntax-ns#"
   xmlns:svg="http://www.w3.org/2000/svg"
   xmlns="http://www.w3.org/2000/svg"
   xmlns:sodipodi="http://sodipodi.sourceforge.net/DTD/sodipodi-0.dtd"
   xmlns:inkscape="http://www.inkscape.org/namespaces/inkscape"
   width="24"
   height="24"
   id="svg9"
   version="1.1"
   sodipodi:docname="user-invisible.svg"
   inkscape:version="0.92.4 (5da689c313, 2019-01-14)">
  <metadata
     id="metadata8">
    <rdf:RDF>
      <cc:Work
         rdf:about="">
        <dc:format>image/svg+xml</dc:format>
        <dc:type
           rdf:resource="http://purl.org/dc/dcmitype/StillImage" />
        <dc:title></dc:title>
      </cc:Work>
    </rdf:RDF>
  </metadata>
  <sodipodi:namedview
     pagecolor="#ffffff"
     bordercolor="#666666"
     borderopacity="1"
     objecttolerance="10"
     gridtolerance="10"
     guidetolerance="10"
     inkscape:pageopacity="0"
     inkscape:pageshadow="2"
     inkscape:window-width="1087"
     inkscape:window-height="480"
     id="namedview6"
     showgrid="false"
     inkscape:zoom="9.8333333"
     inkscape:cx="1.0677966"
     inkscape:cy="12"
     inkscape:window-x="0"
     inkscape:window-y="25"
     inkscape:window-maximized="0"
     inkscape:current-layer="svg9" />
  <defs
     id="defs3">
    <style
       id="current-color-scheme" />
  </defs>
  <path
     d="M 12,4.23 A 7.77,7.77 0 0 0 4.23,12 7.77,7.77 0 0 0 6.54,17.52 l -4.6,2.24 h 9.8 a 7.77,7.77 0 0 0 0.27,0 A 7.77,7.77 0 0 0 19.77,12 7.77,7.77 0 0 0 12,4.23 Z M 11.97,5.38 H 12 A 6.67,6.67 0 0 1 18.67,12.06 6.67,6.67 0 0 1 12,18.75 6.67,6.67 0 0 1 7.7,17.19 6.67,6.67 0 0 1 7.55,17.05 6.67,6.67 0 0 1 5.31,12.07 6.67,6.67 0 0 1 11.98,5.37 Z"
     id="path849"
     inkscape:connector-curvature="0"
     style="fill:#008080;stroke-width:1.24000001" />
</svg>
